static/img/app.svg

<?xml version="1.0" encoding="UTF-8"?> <svg xmlns="http://www.w3.org/2000/svg" width="163" height="48" viewBox="0 0 163 48" fill="none"><path d="M46.3575 10.7379V10.673L46.3013 10.6405L38.3409 6.04225L38.2849 6.00991L38.2287 6.04199L31.6728 9.79V5.2744V5.2094L31.6164 5.17693L23.6684 0.595162L23.6121 0.562722L23.5559 0.595238L15.6325 5.17701L15.5764 5.2095V5.2744V9.83932L8.94214 6.04202L8.8857 6.00972L8.82955 6.0425L0.943296 10.6449L0.8875 10.6774V10.742V19.9015V19.9662L0.943527 19.9988L7.46313 23.7828L0.943527 27.5668L0.8875 27.5993V27.6641V36.7494V36.8134L0.942618 36.8461L8.82887 41.5227L8.88538 41.5562L8.94234 41.5234L15.494 37.7555V42.3241V42.3896L15.5509 42.4219L23.5154 46.946L23.5709 46.9775L23.6264 46.9461L31.6239 42.422L31.6812 42.3896L31.681 42.3237L31.6652 37.7557L38.2327 41.5235L38.2894 41.556L38.3457 41.5229L46.302 36.8463L46.3575 36.8137V36.7494V27.6641V27.5992L46.3013 27.5667L39.7537 23.7828L46.3013 19.9989L46.3575 19.9664V19.9015V10.7379ZM30.9465 18.6961L27.7101 16.8198L31.6164 14.5684L31.6728 14.5359V14.4709V11.4831L38.2843 7.70737L44.1532 11.0962L30.9465 18.6961ZM22.8817 10.2795V17.061L22.2471 16.6933L22.2469 16.6932L21.0027 15.9763L21.0025 15.9762L17.0457 13.6891V6.90332L22.8817 10.2795ZM24.351 10.2796L30.2034 6.90305V13.6889L24.9446 16.7179L24.9444 16.718L24.351 17.0612V10.2796ZM15.5764 14.4709V14.5358L15.6326 14.5683L19.4861 16.7951L16.2284 18.6919L3.08641 11.0959L8.89502 7.70758L15.5764 11.5324V14.4709ZM23.5558 19.15L23.612 19.1826L23.6683 19.1502L26.2449 17.6663L29.4673 19.5335L23.5711 22.8665L17.7027 19.5335L20.9507 17.6418L23.5558 19.15ZM23.6164 9.00522L17.7801 5.63281L23.6164 2.25643L29.4645 5.63281L23.6164 9.00522ZM2.35683 19.1197V12.3709L14.764 19.5432L8.92743 22.9317L2.35683 19.1197ZM8.15571 32.6854V39.4155L2.35683 35.9766V29.3021L8.15571 32.6854ZM3.08195 28.0228L16.2334 20.3896L22.0969 23.7181L8.89041 31.4111L3.08195 28.0228ZM16.9633 36.9092L22.8363 33.5322V44.8709L16.9633 41.5376V36.9092ZM22.8363 24.988V31.8388L9.62504 39.435V32.6855L22.8363 24.988ZM30.2074 41.5375L24.3057 44.8754V33.5319L30.1953 36.9094L30.2074 41.5375ZM37.5499 32.6856V39.4392L24.3057 31.8346V24.9878L37.5499 32.6856ZM44.8882 29.2929V35.9763L39.0192 39.4246V32.6857L44.8882 29.2929ZM30.9416 20.3895L44.1576 28.0225L38.2848 31.4113L25.0458 23.7183L30.9416 20.3895ZM44.8882 19.1196L38.2846 22.9359L32.4158 19.5432L44.8882 12.3663V19.1196Z" fill="#0CC2FF" stroke="#0CC2FF" stroke-width="0.225"></path><path d="M67.2553 6.89062L69.0868 8.72211V11.7823H66.8844V9.62626L66.3512 9.09305H60.2308L59.6975 9.62626V18.8069L60.2308 19.3401H66.3512L66.8844 18.8069V16.6508H69.0868V19.711L67.2553 21.5425H59.3266L57.4951 19.711V8.72211L59.3266 6.89062H67.2553Z" fill="white"></path><path d="M82.7791 6.89062L84.6106 8.72211V14.8193L82.7791 16.6508H79.7189L84.6106 21.5425H81.504L76.6123 16.6508H75.2213V21.5425H73.0189V6.89062H82.7791ZM82.4082 13.9152V9.62626L81.875 9.09305H75.2213V14.4484H81.875L82.4082 13.9152Z" fill="white"></path><path d="M98.3029 6.89062L100.134 8.72211V19.711L98.3029 21.5425H90.3742L88.5427 19.711V8.72211L90.3742 6.89062H98.3029ZM97.932 18.8069V9.62626L97.3988 9.09305H91.2784L90.7451 9.62626V18.8069L91.2784 19.3401H97.3988L97.932 18.8069Z" fill="white"></path><path d="M113.827 6.89062L115.658 8.72211V11.1564H113.456V9.62626L112.923 9.09305H106.802L106.269 9.62626V12.2692L106.802 12.8024H113.827L115.658 14.6339V19.711L113.827 21.5425H105.898L104.067 19.711V17.2768H106.269V18.8069L106.802 19.3401H112.923L113.456 18.8069V15.538L112.923 15.0048H105.898L104.067 13.1733V8.72211L105.898 6.89062H113.827Z" fill="white"></path><path d="M129.351 6.89062L131.182 8.72211V11.1564H128.98V9.62626L128.446 9.09305H122.326L121.793 9.62626V12.2692L122.326 12.8024H129.351L131.182 14.6339V19.711L129.351 21.5425H121.422L119.59 19.711V17.2768H121.793V18.8069L122.326 19.3401H128.446L128.98 18.8069V15.538L128.446 15.0048H121.422L119.59 13.1733V8.72211L121.422 6.89062H129.351Z" fill="white"></path><path d="M137.85 9.09305L137.317 9.62626V12.6169H144.272V14.8193H137.317V21.5425H135.114V8.72211L136.946 6.89062H146.706V9.09305H137.85Z" fill="white"></path><path d="M157.547 9.09305V19.3401H162.23V21.5425H150.638V19.3401H155.344V9.09305H150.638V6.89062H162.23V9.09305H157.547Z" fill="white"></path><path d="M67.5145 25.739L69.3459 27.5704V40.3904H67.1436V36.1248H59.957V40.3904H57.7546V27.5704L59.5861 25.739H67.5145ZM59.957 33.9224H67.1436V28.4746L66.6104 27.9414H60.4902L59.957 28.4746V33.9224Z" fill="#0CC2FF"></path><path d="M83.0377 25.739L84.8691 27.5704V33.6674L83.0377 35.4989H75.4802V40.3904H73.2779V27.5704L75.1093 25.739H83.0377ZM82.6668 32.7633V28.4746L82.1336 27.9414H76.0134L75.4802 28.4746V33.2965H82.1336L82.6668 32.7633Z" fill="#0CC2FF"></path><path d="M98.561 25.739L100.392 27.5704V33.6674L98.561 35.4989H91.0035V40.3904H88.8011V27.5704L90.6325 25.739H98.561ZM98.19 32.7633V28.4746L97.6568 27.9414H91.5367L91.0035 28.4746V33.2965H97.6568L98.19 32.7633Z" fill="#0CC2FF"></path><path fill-rule="evenodd" clip-rule="evenodd" d="M59.4785 25.4797H67.6219L69.6053 27.4631V40.65H66.884V36.3844H60.2163V40.65H57.4951V27.4631L59.4785 25.4797ZM59.6934 25.9986L58.014 27.6781V40.1311H59.6975V35.8655H67.4029V40.1311H69.0864V27.6781L67.4069 25.9986H59.6934ZM75.0018 25.4797H83.1451L85.1285 27.4631V33.7751L83.1451 35.7585H75.7396V40.65H73.0184V27.4631L75.0018 25.4797ZM75.2167 25.9986L73.5372 27.6781V40.1311H75.2207V35.2396H82.9302L84.6096 33.5601V27.6781L82.9302 25.9986H75.2167ZM90.525 25.4797H98.6683L100.652 27.4631V33.7751L98.6683 35.7585H91.2628V40.65H88.5416V27.4631L90.525 25.4797ZM90.7399 25.9986L89.0605 27.6781V40.1311H90.7439V35.2396H98.4534L100.133 33.5601V27.6781L98.4534 25.9986H90.7399ZM60.3826 27.6821H66.7177L67.4029 28.3672V34.182H59.6975V28.3672L60.3826 27.6821ZM60.5976 28.201L60.2163 28.5822V33.6632H66.884V28.5822L66.5028 28.201H60.5976ZM75.9059 27.6821H82.241L82.9262 28.3672V32.8709L82.241 33.5561H75.2207V28.3672L75.9059 27.6821ZM76.1208 28.201L75.7396 28.5822V33.0372H82.0261L82.4073 32.656V28.5822L82.0261 28.201H76.1208ZM91.4291 27.6821H97.7642L98.4494 28.3672V32.8709L97.7642 33.5561H90.7439V28.3672L91.4291 27.6821ZM91.644 28.201L91.2628 28.5822V33.0372H97.5493L97.9305 32.656V28.5822L97.5493 28.201H91.644Z" fill="#0CC2FF"></path></svg>

<?xml version="1.0" encoding="utf-8"?>
<!-- Generator: Adobe Illustrator 28.3.0, SVG Export Plug-In . SVG Version: 6.00 Build 0)  -->
<svg version="1.1" id="katman_1" xmlns="http://www.w3.org/2000/svg" xmlns:xlink="http://www.w3.org/1999/xlink" x="0px" y="0px"
	 viewBox="0 0 163 48" style="enable-background:new 0 0 163 48;" xml:space="preserve">
<style type="text/css">
	.st0{fill:#0CC2FF;stroke:#0CC2FF;stroke-width:0.225;}
	.st1{fill:#0CC2FF;stroke:#0CC2FF;}
	.st2{fill:#0CC2FF;}
	.st3{fill-rule:evenodd;clip-rule:evenodd;fill:#0CC2FF;}
</style>
<path class="st0" d="M46.4,10.7L46.4,10.7L46.4,10.7l-8-4.7l-0.1,0l-0.1,0l-6.6,3.7V5.3V5.2l-0.1,0l-7.9-4.6l-0.1,0l-0.1,0l-7.9,4.6
	l-0.1,0v0.1v4.6L8.9,6L8.9,6L8.8,6l-7.9,4.6l-0.1,0v0.1v9.2V20l0.1,0l6.5,3.8l-6.5,3.8l-0.1,0v0.1v9.1v0.1l0.1,0l7.9,4.7l0.1,0
	l0.1,0l6.6-3.8v4.6v0.1l0.1,0l8,4.5l0.1,0l0.1,0l8-4.5l0.1,0l0-0.1l0-4.6l6.6,3.8l0.1,0l0.1,0l8-4.7l0.1,0v-0.1v-9.1v-0.1l-0.1,0
	l-6.5-3.8l6.5-3.8l0.1,0v-0.1V10.7z M30.9,18.7l-3.2-1.9l3.9-2.3l0.1,0v-0.1v-3l6.6-3.8l5.9,3.4L30.9,18.7z M22.9,10.3v6.8l-0.6-0.4
	l0,0L21,16l0,0l-4-2.3V6.9L22.9,10.3z M24.4,10.3l5.9-3.4v6.8l-5.3,3l0,0l-0.6,0.3V10.3z M15.6,14.5L15.6,14.5L15.6,14.5l3.9,2.3
	l-3.3,1.9L3.1,11.1l5.8-3.4l6.7,3.8V14.5z M23.6,19.1L23.6,19.1l0.1,0l2.6-1.5l3.2,1.9l-5.9,3.3l-5.9-3.3l3.2-1.9L23.6,19.1z
	 M23.6,9l-5.8-3.4l5.8-3.4l5.8,3.4L23.6,9z M2.4,19.1v-6.7l12.4,7.2l-5.8,3.4L2.4,19.1z M8.2,32.7v6.7L2.4,36v-6.7L8.2,32.7z
	 M3.1,28l13.2-7.6l5.9,3.3L8.9,31.4L3.1,28z M17,36.9l5.9-3.4v11.3L17,41.5V36.9z M22.8,25v6.9L9.6,39.4v-6.7L22.8,25z M30.2,41.5
	l-5.9,3.3V33.5l5.9,3.4L30.2,41.5z M37.5,32.7v6.8l-13.2-7.6V25L37.5,32.7z M44.9,29.3V36L39,39.4v-6.7L44.9,29.3z M30.9,20.4
	L44.2,28l-5.9,3.4L25,23.7L30.9,20.4z M44.9,19.1l-6.6,3.8l-5.9-3.4l12.5-7.2V19.1z"/>
<path class="st1" d="M67.3,6.9l1.8,1.8v3.1h-2.2V9.6l-0.5-0.5h-6.1l-0.5,0.5v9.2l0.5,0.5h6.1l0.5-0.5v-2.2h2.2v3.1l-1.8,1.8h-7.9
	l-1.8-1.8v-11l1.8-1.8H67.3z"/>
<path class="st1" d="M82.8,6.9l1.8,1.8v6.1l-1.8,1.8h-3.1l4.9,4.9h-3.1l-4.9-4.9h-1.4v4.9H73V6.9H82.8z M82.4,13.9V9.6l-0.5-0.5
	h-6.7v5.4h6.7L82.4,13.9z"/>
<path class="st1" d="M98.3,6.9l1.8,1.8v11l-1.8,1.8h-7.9l-1.8-1.8v-11l1.8-1.8H98.3z M97.9,18.8V9.6l-0.5-0.5h-6.1l-0.5,0.5v9.2
	l0.5,0.5h6.1L97.9,18.8z"/>
<path class="st1" d="M113.8,6.9l1.8,1.8v2.4h-2.2V9.6l-0.5-0.5h-6.1l-0.5,0.5v2.6l0.5,0.5h7l1.8,1.8v5.1l-1.8,1.8h-7.9l-1.8-1.8
	v-2.4h2.2v1.5l0.5,0.5h6.1l0.5-0.5v-3.3l-0.5-0.5h-7l-1.8-1.8V8.7l1.8-1.8H113.8z"/>
<path class="st1" d="M129.4,6.9l1.8,1.8v2.4H129V9.6l-0.5-0.5h-6.1l-0.5,0.5v2.6l0.5,0.5h7l1.8,1.8v5.1l-1.8,1.8h-7.9l-1.8-1.8v-2.4
	h2.2v1.5l0.5,0.5h6.1l0.5-0.5v-3.3l-0.5-0.5h-7l-1.8-1.8V8.7l1.8-1.8H129.4z"/>
<path class="st1" d="M137.9,9.1l-0.5,0.5v3h7v2.2h-7v6.7h-2.2V8.7l1.8-1.8h9.8v2.2H137.9z"/>
<path class="st1" d="M157.5,9.1v10.2h4.7v2.2h-11.6v-2.2h4.7V9.1h-4.7V6.9h11.6v2.2H157.5z"/>
<path class="st2" d="M67.5,25.7l1.8,1.8v12.8h-2.2v-4.3H60v4.3h-2.2V27.6l1.8-1.8H67.5z M60,33.9h7.2v-5.4l-0.5-0.5h-6.1L60,28.5
	V33.9z"/>
<path class="st2" d="M83,25.7l1.8,1.8v6.1L83,35.5h-7.6v4.9h-2.2V27.6l1.8-1.8H83z M82.7,32.8v-4.3l-0.5-0.5H76l-0.5,0.5v4.8h6.7
	L82.7,32.8z"/>
<path class="st2" d="M98.6,25.7l1.8,1.8v6.1l-1.8,1.8H91v4.9h-2.2V27.6l1.8-1.8H98.6z M98.2,32.8v-4.3l-0.5-0.5h-6.1L91,28.5v4.8
	h6.7L98.2,32.8z"/>
<path class="st3" d="M59.5,25.5h8.1l2,2v13.2h-2.7v-4.3h-6.7v4.3h-2.7V27.5L59.5,25.5z M59.7,26L58,27.7v12.5h1.7v-4.3h7.7v4.3h1.7
	V27.7L67.4,26H59.7z M75,25.5h8.1l2,2v6.3l-2,2h-7.4v4.9H73V27.5L75,25.5z M75.2,26l-1.7,1.7v12.5h1.7v-4.9h7.7l1.7-1.7v-5.9
	L82.9,26H75.2z M90.5,25.5h8.1l2,2v6.3l-2,2h-7.4v4.9h-2.7V27.5L90.5,25.5z M90.7,26l-1.7,1.7v12.5h1.7v-4.9h7.7l1.7-1.7v-5.9
	L98.5,26H90.7z M60.4,27.7h6.3l0.7,0.7v5.8h-7.7v-5.8L60.4,27.7z M60.6,28.2l-0.4,0.4v5.1h6.7v-5.1l-0.4-0.4H60.6z M75.9,27.7h6.3
	l0.7,0.7v4.5l-0.7,0.7h-7v-5.2L75.9,27.7z M76.1,28.2l-0.4,0.4V33H82l0.4-0.4v-4.1L82,28.2H76.1z M91.4,27.7h6.3l0.7,0.7v4.5
	l-0.7,0.7h-7v-5.2L91.4,27.7z M91.6,28.2l-0.4,0.4V33h6.3l0.4-0.4v-4.1l-0.4-0.4H91.6z"/>
</svg>
